img/Logo-Facebook.svg

<svg xmlns="http://www.w3.org/2000/svg" viewBox="0 0 24 24"><desc>UP Facebook Page</desc><path path="path" fill="#fff" d="M22.675 0h-21.35c-.732 0-1.325.593-1.325 1.325v21.351c0 .731.593 1.324 1.325 1.324h11.495v-9.294h-3.128v-3.622h3.128v-2.671c0-3.1 1.893-4.788 4.659-4.788 1.325 0 2.463.099 2.795.143v3.24l-1.918.001c-1.504 0-1.795.715-1.795 1.763v2.313h3.587l-.467 3.622h-3.12v9.293h6.116c.73 0 1.323-.593 1.323-1.325v-21.35c0-.732-.593-1.325-1.325-1.325z"/></svg>

<svg xmlns="http://www.w3.org/2000/svg" viewBox="0 0 24 24"><desc>UP Facebook Page</desc><path fill="#fff" d="M22.68 0H1.32C.6 0 0 .6 0 1.32v21.36C0 23.4.6 24 1.32 24h11.5v-9.3H9.7V11.1h3.12V8.4c0-3.1 1.9-4.78 4.66-4.78 1.32 0 2.46.1 2.8.15V7h-1.92c-1.5 0-1.8.72-1.8 1.77v2.32h3.6l-.48 3.6h-3.12V24h6.12c.73 0 1.32-.6 1.32-1.32V1.32C24 .6 23.4 0 22.68 0z"/></svg>
